!!!!SEGMENT: pl-wn--mus-iii-62-552_katski-apolinary--l-echo-caprice-etude-op-5.krn
!!!cenid: 18xx:3630
!!!COM: Kątski, Apolinary
!!!COM-rismID: pe30020040
!!!CDT: 1825-1879
!!!CNT: Polish
!!!OTL: L'Echo : caprice étude op. 5
!!!PDT:
!!!AGN:
!!!SMS-siglum: PL-Wn
!!!SMS-shelfmark: Mus.III.62.552
!!!SMS-shelfwork: W
!!!SMS-variant:
!!!SMS-altvar:
!!!NIFC-rismSourceID:
!!!NIFC-rismChildID:
!!!NIFC-islandoraID: none
!!!URL-pdf-islandora:
!!!URL-scan: https://polona2.pl/item/l-echo-caprice-etude-pour-violon-seul-oeuv-5,MTAxNTU2NzQw/2 @EN{Scan on Polona} @PL{Skany w portalu Polona}
!!!IIIF: https://polona2.pl/iiif/item/MTAxNTU2NzQw/manifest.json
!!!ONB-nifc:
!!!AIN: 1 violn
!!!key: b
**kern	**kern	**dynam
*part1	*part1	*part1
*staff2	*staff1	*
*I"Violon	*	*
*Ivioln	*	*
*ICstr	*	*
*I'v-n	*	*
*clefG2	*clefG2	*
*k[f#]	*k[f#]	*
*b:	*b:	*
*M4/4	*M4/4	*
*met(c)	*met(c)	*
=1	=1	=1
!	!	!
=2	=2	=2
*xywh-3:459,620,4050,703	*xywh-3:459,620,4050,703	*
!	!LO:TX:a:B:t=ALLEGRO VIVACE.	!
1r	(32G/LLL	ff
.	32d/	.
.	32b/	.
.	32gg/JJJ)	.
.	(32gg^/LLL	.
.	32b/	.
.	32d/	.
.	32G/JJJ	.
.	32G^/LLL	.
.	32d/	.
.	32b/	.
.	32gg/JJJ)	.
.	(32gg^/LLL	.
.	32b/	.
.	32d/	.
.	32G/JJJ	.
.	32G^/LLL	.
.	32d/	.
.	32b/	.
.	32gg/JJJ)	.
.	(32gg^/LLL	.
.	32b/	.
.	32d/	.
.	32G/JJJ	.
.	32G^/LLL	.
.	32d/	.
.	32b/	.
.	32aa/JJJ)	.
.	(32aa^/LLL	.
.	32b/	.
.	32d/	.
.	32G/JJJ	.
!	!LO:LB:g=original	!
*xywh-3:407,1264,3990,569	*xywh-3:407,1264,3990,569	*
=3	=3	=3
1r	32G^/LLL	.
.	32d/	.
.	32b/	.
.	32aa#X/JJJ)	.
!	!LO:TX:a:i:t=seque	!
.	32aa#/LLL	.
.	32b/	.
.	32d/	.
.	32G/JJJ	.
.	32G/LLL	.
.	32d/	.
.	32b/	.
.	32bb/JJJ	.
.	32bb/LLL	.
.	32b/	.
.	32d/	.
.	32G/JJJ	.
.	32G/LLL	.
.	32d/	.
.	32b/	.
.	32aan/JJJ	.
.	32aa/LLL	.
.	32b/	.
.	32d/	.
.	32G/JJJ	.
.	32G/LLL	.
.	32d/	.
.	32b/	.
.	32gg/JJJ	.
.	32gg/LLL	.
.	32b/	.
.	32d/	.
.	32G/JJJ	.
!	!LO:LB:g=original	!
*xywh-3:370,1810,4087,531	*xywh-3:370,1810,4087,531	*
=4	=4	=4
1r	32G/LLL	.
.	32e/	.
.	32cc#X/	.
.	32ee/JJJ	.
.	32ee/LLL	.
.	32cc#/	.
.	32e/	.
.	32G/JJJ	.
.	32G/LLL	.
.	32e/	.
.	32cc#/	.
.	32aa/JJJ	.
.	32aa/LLL	.
.	32cc#/	.
.	32e/	.
.	32G/JJJ	.
.	32G/LLL	.
.	32d/	.
.	32ccn/	.
.	32bb/JJJ	.
.	32bb/LLL	.
.	32cc/	.
.	32d/	.
.	32G/JJJ	.
.	32G/LLL	.
.	32d/	.
.	32cc/	.
.	32aa/JJJ	.
.	32aa/LLL	.
.	32cc/	.
.	32d/	.
.	32G/JJJ	.
!	!LO:LB:g=original	!
*xywh-3:377,2297,4110,583	*xywh-3:377,2297,4110,583	*
=5	=5	=5
1r	32G/LLL	.
.	32d/	.
.	32b/	.
.	32gg/JJJ	.
.	32gg/LLL	.
.	32b/	.
.	32d/	.
.	32G/JJJ	.
.	32G/LLL	.
.	32d/	.
.	32b/	.
.	32ff#/JJJ	.
.	32gg/LLL	.
.	32b/	.
.	32d/	.
.	32G/JJJ	.
.	32G/LLL	.
.	32d/	.
.	32cc/	.
.	32aa/JJJ	.
.	32aa/LLL	.
.	32cc/	.
.	32d/	.
.	32G/JJJ	.
.	32G/LLL	.
.	32d/	.
.	32cc/	.
.	32ddd/JJJ	.
.	(32ddd/LLL	.
.	32cc|/	.
.	32d|/	.
.	32G|/JJJ)	.
!	!LO:LB:g=original	!
*xywh-3:384,2829,4050,554	*xywh-3:384,2829,4050,554	*
=6	=6	=6
1r	(32G|/LLL	p
.	32d|/	.
.	32b|/	.
.	32gg|/JJJ)	.
.	(32gg|/LLL	.
.	32b|/	.
.	32d|/	.
.	32G|/JJJ)	.
.	(32G|/LLL	.
.	32d|/	.
.	32b|/	.
.	32gg|/JJJ)	.
.	(32gg|/LLL	.
.	32b|/	.
.	32d|/	.
.	32G|/JJJ)	.
.	(32G|/LLL	.
.	32d|/	.
.	32b|/	.
.	32gg|/JJJ)	.
.	(32gg|/LLL	.
.	32b|/	.
.	32d|/	.
.	32G|/JJJ)	.
.	(32G|/LLL	.
.	32d|/	.
.	32b|/	.
.	32aa|/JJJ)	.
.	(32aa|/LLL	.
.	32b|/	.
.	32d|/	.
.	32G|/JJJ)	.
!	!LO:LB:g=original	!
*xywh-3:362,3323,4050,583	*xywh-3:362,3323,4050,583	*
=7	=7	=7
!	!LO:TX:a:i:t=seque	!
1r	32G/LLL	.
.	32d/	.
.	32b/	.
.	32aa#X/JJJ	.
.	32aa#/LLL	.
.	32b/	.
.	32d/	.
.	32G/JJJ	.
.	32G/LLL	.
.	32d/	.
.	32b/	.
.	32bb/JJJ	.
.	32bb/LLL	.
.	32b/	.
.	32d/	.
.	32G/JJJ	.
.	32G/LLL	.
.	32d/	.
.	32b/	.
.	32aan/JJJ	.
.	32aa/LLL	.
.	32b/	.
.	32d/	.
.	32G/JJJ	.
.	32G/LLL	.
.	32d/	.
.	32b/	.
.	32gg/JJJ	.
.	32gg/LLL	.
.	32b/	.
.	32d/	.
.	32G/JJJ	.
!	!LO:LB:g=original	!
*xywh-3:429,3854,4057,561	*xywh-3:429,3854,4057,561	*
=8	=8	=8
1r	32G/LLL	.
.	32e/	.
.	32cc#X/	.
.	32ee/JJJ	.
.	32ee/LLL	.
.	32cc#/	.
.	32e/	.
.	32G/JJJ	.
.	32G/LLL	.
.	32e-X/	.
.	32ccn/	.
.	32aa/JJJ	.
.	32aa/LLL	.
.	32cc/	.
.	32e-/	.
.	32G/JJJ	.
.	32G/LLL	.
.	32d/	.
.	32cc/	.
.	32bb/JJJ	.
.	32bb/LLL	.
.	32cc/	.
.	32d/	.
.	32G/JJJ	.
.	32G/LLL	.
.	32d/	.
.	32cc/	.
.	32aa/JJJ	.
.	32aa/LLL	.
.	32cc/	.
.	32d/	.
.	32G/JJJ	.
!	!LO:LB:g=original	!
*xywh-3:454,4359,3998,548	*xywh-3:454,4359,3998,548	*
=9	=9	=9
1r	32G/LLL	.
.	32d/	.
.	32b/	.
.	32gg/JJJ	.
.	32gg/LLL	.
.	32b/	.
.	32d/	.
.	32G/JJJ	.
.	32G^/LLL	.
.	32d/	.
.	32cc/	.
.	32bb/JJJ	.
.	32aa^/LLL	.
.	32cc/	.
.	32d/	.
.	32G/JJJ	.
.	32G^/LLL	.
.	32d/	.
.	32b/	.
.	32gg/JJJ	.
.	32ff#^/LLL	.
.	32b/	.
.	32d/	.
.	32G/JJJ	.
.	32G^/LLL	.
.	32d/	.
.	32cc/	.
.	32ee/JJJ	.
.	32ff#^/LLL	.
.	32cc/	.
.	32d/	.
.	32G/JJJ	.
!	!LO:LB:g=original	!
*xywh-3:508,4862,3998,934	*xywh-3:508,4862,3998,934	*
=10	=10	=10
*	*)	*
1r	(32G~/LLL	ppp
.	32d~/	.
.	32b~/	.
.	32gg~/JJJ)	.
.	(32gg~/LLL	.
.	32b~/	.
.	32d~/	.
.	32G~/JJJ)	.
.	(32G~/LLL	.
.	32d~/	.
.	32b~/	.
.	32gg~/JJJ)	.
.	(32gg~/LLL	.
.	32b~/	.
.	32d~/	.
.	32G~/JJJ)	.
.	(32G~/LLL	.
.	32d~/	.
.	32b~/	.
.	32gg~/JJJ)	.
.	(32gg~/LLL	.
.	32b~/	.
.	32d~/	.
.	32G~/JJJ)	.
.	(32G~/LLL	.
.	32d~/	.
.	32b~/	.
.	32aa~/JJJ)	.
.	(32aa~/LLL	.
.	32b~/	.
.	32d~/	.
.	32G~/JJJ)	.
!	!LO:PB:g=original	!
*xywh-4:593,662,3988,601	*xywh-4:593,662,3988,601	*
=11	=11	=11
!	!LO:TX:a:i:t=segue	!
1r	32G/LLL	.
.	32d/	.
.	32b/	.
.	32aa#X/JJJ	.
.	32aa#/LLL	.
.	32b/	.
.	32d/	.
.	32G/JJJ	.
.	32G/LLL	.
.	32d/	.
.	32b/	.
.	32bb/JJJ	.
.	32bb/LLL	.
.	32b/	.
.	32d/	.
.	32G/JJJ	.
.	32G/LLL	.
.	32d/	.
.	32b/	.
.	32aan/JJJ	.
.	32aa/LLL	.
.	32b/	.
.	32d/	.
.	32G/JJJ	.
.	32G/LLL	.
.	32d/	.
.	32b/	.
.	32gg/JJJ	.
.	32gg/LLL	.
.	32b/	.
.	32d/	.
.	32G/JJJ	.
!	!LO:LB:g=original	!
*xywh-4:651,1215,3988,543	*xywh-4:651,1215,3988,543	*
=12	=12	=12
1r	32G/LLL	.
.	32e/	.
.	32cc#X/	.
.	32ee/JJJ	.
.	32ee/LLL	.
.	32cc#/	.
.	32e/	.
.	32G/JJJ	.
.	32G/LLL	.
.	32e/	.
.	32cc#/	.
.	32aa/JJJ	.
.	32aa/LLL	.
.	32cc#/	.
.	32e/	.
.	32G/JJJ	.
.	32G/LLL	.
.	32d/	.
.	32ccn/	.
.	32bb/JJJ	.
.	32bb/LLL	.
.	32cc/	.
.	32d/	.
.	32G/JJJ	.
.	32G/LLL	.
.	32d/	.
.	32cc/	.
.	32aa/JJJ	.
.	32aa/LLL	.
.	32cc/	.
.	32d/	.
.	32G/JJJ	.
!	!LO:LB:g=original	!
*xywh-4:583,1710,4027,514	*xywh-4:583,1710,4027,514	*
=13	=13	=13
1r	32G/LLL	.
.	32d/	.
.	32b/	.
.	32gg/JJJ	.
.	32gg/LLL	.
.	32b/	.
.	32d/	.
.	32G/JJJ	.
.	32G/LLL	.
.	32d/	.
.	32b/	.
.	32ff#/JJJ	.
.	32gg/LLL	.
.	32b/	.
.	32d/	.
.	32G/JJJ	.
.	32G/LLL	.
.	32d/	.
.	32cc/	.
.	32aa/JJJ	.
.	32aa/LLL	.
.	32cc/	.
.	32d/	.
.	32G/JJJ	.
.	32G/LLL	.
.	32d/	.
.	32cc/	.
.	32ddd/JJJ	.
.	32ddd/LLL	.
.	32cc/	.
.	32d/	.
.	32G/JJJ	.
!	!LO:LB:g=original	!
*xywh-4:593,2156,3978,543	*xywh-4:593,2156,3978,543	*
=14	=14	=14
1r	32G/LLL	.
.	32d/	.
.	32b/	.
.	32gg/JJJ	.
.	32gg/LLL	.
.	32b/	.
.	32d/	.
.	32G/JJJ	.
.	32G/LLL	.
.	32d/	.
.	32b/	.
.	32gg/JJJ	.
.	32gg/LLL	.
.	32b/	.
.	32d/	.
.	32G/JJJ	.
.	32G/LLL	.
.	32d/	.
.	32b/	.
.	32gg/JJJ	.
.	32gg/LLL	.
.	32b/	.
.	32d/	.
.	32G/JJJ	.
.	32G/LLL	.
.	32d/	.
.	32b/	.
.	32aa/JJJ	.
.	32aa/LLL	.
.	32b/	.
.	32d/	.
.	32G/JJJ	.
!	!LO:LB:g=original	!
*xywh-4:602,2661,3998,514	*xywh-4:602,2661,3998,514	*
=15	=15	=15
1r	32G/LLL	.
.	32d/	.
.	32b/	.
.	32aa#X/JJJ	.
.	32aa#/LLL	.
.	32b/	.
.	32d/	.
.	32G/JJJ	.
.	32G/LLL	.
.	32d/	.
.	32b/	.
.	32bb/JJJ	.
.	32bb/LLL	.
.	32b/	.
.	32d/	.
.	32G/JJJ	.
.	32G/LLL	.
.	32d/	.
.	32b/	.
.	32aan/JJJ	.
.	32aa/LLL	.
.	32b/	.
.	32d/	.
.	32G/JJJ	.
.	32G/LLL	.
.	32d/	.
.	32b/	.
.	32gg/JJJ	.
.	32gg/LLL	.
.	32b/	.
.	32d/	.
.	32G/JJJ	.
!	!LO:LB:g=original	!
*xywh-4:632,3117,3940,533	*xywh-4:632,3117,3940,533	*
=16	=16	=16
1r	32G/LLL	.
.	32e/	.
.	32cc#X/	.
.	32ee/JJJ	.
.	32ee/LLL	.
.	32cc#/	.
.	32e/	.
.	32G/JJJ	.
.	32G/LLL	.
.	32e-X/	.
.	32ccn/	.
.	32aa/JJJ	.
.	32aa/LLL	.
.	32cc/	.
.	32e-/	.
.	32G/JJJ	.
.	32G/LLL	.
.	32d/	.
.	32cc/	.
.	32bb/JJJ	.
.	32bb/LLL	.
.	32cc/	.
.	32d/	.
.	32G/JJJ	.
.	32G/LLL	.
.	32d/	.
.	32cc/	.
.	32aa/JJJ	.
.	32aa/LLL	.
.	32cc/	.
.	32d/	.
.	32G/JJJ	.
!	!LO:LB:g=original	!
*xywh-4:641,3602,3969,533	*xywh-4:641,3602,3969,533	*
=17	=17	=17
1r	32G~/LLL	.
.	32d'/	.
.	32b'/	.
.	32gg'^/JJJ	.
.	32ff#'^/LLL	.
.	32b'/	.
.	32d'/	.
.	32G'/JJJ	.
.	32G'/LLL	.
.	32d'/	.
.	32cc'/	.
.	32ee'^/JJJ	.
.	32ff#'^/LLL	.
.	32cc~/	.
.	32d~/	.
.	32G~/JJJ	.
.	32G~/LLL	.
.	32d~/	.
.	32b~/	.
.	32gg~/JJJ	.
.	32gg~/LLL	.
.	32b~/	.
.	32d~/	.
.	32G~/JJJ	.
.	32G~/LLL	.
.	32d~/	.
.	32b~/	.
.	32gg#X~/JJJ	.
.	32gg#~/LLL	.
.	32b~/	.
.	32d~/	.
.	32G~/JJJ	.
!	!LO:LB:g=original	!
*xywh-4:583,4068,4027,572	*xywh-4:583,4068,4027,572	*
=18	=18	=18
1r	(32G^/LLL	fff
.	32e/	.
.	32cc#X/	.
.	32bb/JJJ)	.
.	(32bb^/LLL	.
.	32cc#/	.
.	32e/	.
.	32G/JJJ	.
.	32G^/LLL	.
.	32e/	.
.	32cc#/	.
.	32aa/JJJ)	.
.	(32aa^/LLL	.
.	32cc#/	.
.	32e/	.
.	32G/JJJ	.
.	32G^/LLL	.
.	32e/	.
.	32cc#/	.
.	32ee/JJJ)	.
.	(32ee^/LLL	.
.	32cc#/	.
.	32e/	.
.	32G/JJJ	.
.	32G^/LLL	.
.	32e/	.
.	32cc#/	.
.	32aa/JJJ)	.
.	(32aa^/LLL	.
.	32cc#/	.
.	32e/	.
.	32G/JJJ	.
!	!LO:LB:g=original	!
*xywh-4:583,4553,4066,543	*xywh-4:583,4553,4066,543	*
=19	=19	=19
1r	32G^/LLL	.
.	32e/	.
.	32cc#X/	.
.	32bb/JJJ)	.
.	(32bb^/LLL	.
.	32cc#/	.
.	32e/	.
.	32G/JJJ	.
.	32G^/LLL	.
.	32e/	.
.	32cc#/	.
.	32aa/JJJ)	.
.	(32aa^/LLL	.
.	32cc#/	.
.	32e/	.
.	32G/JJJ	.
.	32G/LLL	.
.	32e/	.
.	32cc#/	.
.	32ee/JJJ)	.
!	!LO:TX:a:i:t=seque	!
.	32ee/LLL	.
.	32cc#/	.
.	32e/	.
.	32G/JJJ	.
.	32G/LLL	.
.	32e-X/	.
.	32cc#/	.
.	32aa/JJJ	.
.	32aa/LLL	.
.	32cc#/	.
.	32e-/	.
.	32G/JJJ	.
!	!LO:PB:g=original	!
*xywh-4:447,5000,4269,708	*xywh-4:447,5000,4269,708	*
=20	=20	=20
1r	32G/LLL	.
.	32d/	.
.	32ccn/	.
.	32gg/JJJ	.
.	32gg/LLL	.
.	32cc/	.
.	32d/	.
.	32G/JJJ	.
.	32G/LLL	.
.	32d/	.
.	32cc/	.
.	32ff#/JJJ	.
.	32ff#/LLL	.
.	32cc/	.
.	32d/	.
.	32G/JJJ	.
.	32G/LLL	.
.	32d/	.
.	32cc/	.
.	32bb/JJJ	.
.	32bb/LLL	.
.	32cc/	.
.	32d/	.
.	32G/JJJ	.
.	32G/LLL	.
.	32d/	.
.	32cc/	.
.	32aa/JJJ	.
.	32aa/LLL	.
.	32cc/	.
.	32d/	.
.	32G/JJJ	.
!	!LO:LB:g=original	!
*xywh-5:341,731,4058,620	*xywh-5:341,731,4058,620	*
=21	=21	=21
1r	32G/LLL	.
.	32d/	.
.	32b/	.
.	32aa/JJJ	.
.	32aa/LLL	.
.	32b/	.
.	32d/	.
.	32G/JJJ	.
.	32G/LLL	.
.	32d/	.
.	32b/	.
.	32gg/JJJ	.
.	32ff#/LLL	.
.	32b/	.
.	32d/	.
.	32G/JJJ	.
.	32G/LLL	.
.	32d/	.
.	32b/	.
.	32gg/JJJ	.
.	32gg/LLL	.
.	32b/	.
.	32d/	.
.	32G/JJJ	.
.	32G/LLL	.
.	32d/	.
.	32b/	.
.	32gg#X/JJJ	.
.	(32gg#/LLL	.
.	32b/	.
.	32d/	.
.	32G/JJJ	.
!	!LO:LB:g=original	!
*xywh-5:400,1223,3949,571	*xywh-5:400,1223,3949,571	*
=22	=22	=22
1r	32G|/LLL	p
.	32e|/	.
.	32cc#X|/	.
.	32bb|/JJJ)	.
.	(32bb|/LLL	.
.	32cc#|/	.
.	32e|/	.
.	32G|/JJJ)	.
.	(32G|/LLL	.
.	32e|/	.
.	32cc#|/	.
.	32aa|/JJJ)	.
.	(32aa|/LLL	.
.	32cc#|/	.
.	32e|/	.
.	32G|/JJJ)	.
.	(32G|/LLL	.
.	32e|/	.
.	32cc#|/	.
.	32ee|/JJJ)	.
.	(32ee|/LLL	.
.	32cc#|/	.
.	32e|/	.
.	32G|/JJJ)	.
.	(32G|/LLL	.
.	32d#X|/	.
.	32cc#|/	.
.	32aa|/JJJ)	.
.	(32aa|/LLL	.
.	32cc#|/	.
.	32d#|/	.
.	32G|/JJJ)	.
!	!LO:LB:g=original	!
*xywh-5:331,1706,4008,512	*xywh-5:331,1706,4008,512	*
=23	=23	=23
1r	(32G|/LLL	.
.	32e|/	.
.	32cc#X|/	.
.	32bb|/JJJ)	.
.	(32bb|/LLL	.
.	32cc#|/	.
.	32e|/	.
.	32G|/JJJ)	.
.	(32G|/LLL	.
.	32e|/	.
.	32cc#|/	.
.	32aa|/JJJ)	.
.	(32aa|/LLL	.
.	32cc#|/	.
.	32e|/	.
.	32G|/JJJ)	.
.	(32G|/LLL	.
.	32e|/	.
.	32cc#|/	.
.	32ee|/JJJ)	.
.	(32ee|/LLL	.
.	32cc#|/	.
.	32e|/	.
.	32G|/JJJ)	.
.	(32G|/LLL	.
.	32e-X|/	.
.	32cc#|/	.
.	32aa|/JJJ)	.
.	(32aa|/LLL	.
.	32cc#|/	.
.	32e-|/	.
.	32G|/JJJ)	.
!	!LO:LB:g=original	!
*xywh-5:311,2110,4028,561	*xywh-5:311,2110,4028,561	*
=24	=24	=24
!	!LO:TX:a:i:t=seque	!
1r	32G/LLL	.
.	32d/	.
.	32ccn/	.
.	32gg/JJJ	.
.	32gg/LLL	.
.	32cc/	.
.	32d/	.
.	32G/JJJ	.
.	32G/LLL	.
.	32d/	.
.	32cc/	.
.	32ff#/JJJ	.
.	32ff#/LLL	.
.	32cc/	.
.	32d/	.
.	32G/JJJ	.
.	32G/LLL	.
.	32d/	.
.	32cc/	.
.	32eee/JJJ	.
.	32eee/LLL	.
.	32cc/	.
.	32d/	.
.	32G/JJJ	.
.	32G/LLL	.
.	32d/	.
.	32cc/	.
.	32eee-X/JJJ	.
.	32eee-/LLL	.
.	32cc/	.
.	32d/	.
.	32G/JJJ	.
!	!LO:LB:g=original	!
*xywh-5:341,2543,3999,630	*xywh-5:341,2543,3999,630	*
=25	=25	=25
!	!	!LO:DY:a
1r	32G/LLL	>]
.	32d/	.
.	32cc/	.
.	32ddd/JJJ	.
.	32ddd/LLL	.
.	32cc/	.
.	32d/	.
.	32G/JJJ	.
.	32G/LLL	.
.	32d/	.
.	32cc/	.
.	32ccc#X/JJJ	.
.	32ccc#/LLL	.
.	32ccn/	.
.	32d/	.
.	32G/JJJ	.
.	32G/LLL	.
.	32d/	.
.	32cc/	.
.	32cccn/JJJ	.
.	32ccc/LLL	.
.	32cc/	.
.	32d/	.
.	32G/JJJ	.
.	32G/LLL	.
.	32d/	.
.	32cc/	.
.	32aa/JJJ	.
.	32aa/LLL	.
.	32cc/	.
.	32d/	.
.	32G/JJJ	.
!	!LO:LB:g=original	!
*xywh-5:361,3124,4028,876	*xywh-5:361,3124,4028,876	*
=26	=26	=26
4r	(32G~/LLL	ppp
.	32d~/	.
.	32b~/	.
.	32gg~/JJJ)	.
.	(32gg~/LLL	.
.	32b~/	.
.	32d~/	.
.	32G~/JJJ)	.
!	!LO:TX:a:t=pizz.	!
!	!LO:TX:t=P:problem=konsekwentny brak kropki [kolejne takty]	!
2G/	(32G~/LLL	sf
.	32d~/	.
.	32b~/	.
.	32gg~/JJJ)	.
.	(32gg~/LLL	.
.	32b~/	.
.	32d~/	.
.	32G~/JJJ)	.
.	(32G~/LLL	.
.	32d~/	.
.	32b~/	.
.	32gg~/JJJ)	.
.	(32gg~/LLL	.
.	32b~/	.
.	32d~/	.
.	32G~/JJJ)	.
4ryy	(32G~/LLL	.
.	32d~/	.
.	32b~/	.
.	32aa~/JJJ)	.
.	(32aa~/LLL	.
.	32b~/	.
.	32d~/	.
.	32G~/JJJ)	.
!	!LO:LB:g=original	!
*xywh-5:400,3873,3890,985	*xywh-5:400,3873,3890,985	*
=27	=27	=27
!	!LO:TX:a:i:t=seque	!
4r	32G/LLL	.
.	32d/	.
.	32b/	.
.	32aa#X/JJJ	.
.	32aa#/LLL	.
.	32b/	.
.	32d/	.
.	32G/JJJ	.
!	!LO:TX:a:t=pizz.	!
2G/	32G/LLL	sf
.	32d/	.
.	32b/	.
.	32bb/JJJ	.
.	32bb/LLL	.
.	32b/	.
.	32d/	.
.	32G/JJJ	.
.	32G/LLL	.
.	32d/	.
.	32b/	.
.	32aan/JJJ	.
.	32aa/LLL	.
.	32b/	.
.	32d/	.
.	32G/JJJ	.
4ryy	32G/LLL	.
.	32d/	.
.	32b/	.
.	32gg/JJJ	.
.	32gg/LLL	.
.	32b/	.
.	32d/	.
.	32G/JJJ	.
!	!LO:PB:g=original	!
*xywh-5:380,4789,3949,994	*xywh-5:380,4789,3949,994	*
=28	=28	=28
4r	32G/LLL	.
.	32e/	.
.	32cc#X/	.
.	32ee/JJJ	.
.	32ee/LLL	.
.	32cc#/	.
.	32e/	.
.	32G/JJJ	.
!	!LO:TX:a:t=pizz.	!
2G/	32G/LLL	sf
.	32e-X/	.
.	32ccn/	.
.	32aa/JJJ	.
.	32aa/LLL	.
.	32cc/	.
.	32e-/	.
.	32G/JJJ	.
.	32G/LLL	.
.	32d/	.
.	32cc/	.
.	32bb/JJJ	.
.	32bb/LLL	.
.	32cc/	.
.	32d/	.
.	32G/JJJ	.
4ryy	32G/LLL	.
.	32d/	.
.	32cc/	.
.	32aa/JJJ	.
.	32aa/LLL	.
.	32cc/	.
.	32d/	.
.	32G/JJJ	.
!	!LO:LB:g=original	!
*xywh-6:651,819,4017,974	*xywh-6:651,819,4017,974	*
=29	=29	=29
4r	32G/LLL	.
.	32d/	.
.	32b/	.
.	32gg/JJJ	.
.	32gg/LLL	.
.	32b/	.
.	32d/	.
.	32G/JJJ	.
!	!LO:TX:a:t=pizz.	!
2G/	32G/LLL	sf
.	32d/	.
.	32b/	.
.	32ff#/JJJ	.
.	32gg/LLL	.
.	32b/	.
.	32d/	.
.	32G/JJJ	.
.	32G/LLL	.
.	32d/	.
.	32cc/	.
.	32aa/JJJ	.
.	32aa/LLL	.
.	32cc/	.
.	32d/	.
.	32G/JJJ	.
4ryy	32G/LLL	.
.	32d/	.
.	32cc/	.
.	32ddd/JJJ	.
.	32ddd/LLL	.
.	32cc/	.
.	32d/	.
.	32G/JJJ	.
!	!LO:LB:g=original	!
*xywh-6:671,1804,3938,935	*xywh-6:671,1804,3938,935	*
=30	=30	=30
4r	(32G/LLL	.
.	32d/	.
.	32b/	.
.	32gg/JJJ)	.
.	(32gg/LLL	.
.	32b/	.
.	32d/	.
.	32G/JJJ)	.
!	!LO:TX:a:t=pizz.	!
2G/	(32G/LLL	sf
.	32d/	.
.	32b/	.
.	32gg/JJJ)	.
.	(32gg/LLL	.
.	32b/	.
.	32d/	.
.	32G/JJJ)	.
.	(32G/LLL	.
.	32d/	.
.	32b/	.
.	32gg/JJJ)	.
.	(32gg/LLL	.
.	32b/	.
.	32d/	.
.	32G/JJJ)	.
4ryy	(32G/LLL	.
.	32d/	.
.	32b/	.
.	32aa/JJJ)	.
.	(32aa/LLL	.
.	32b/	.
.	32d/	.
.	32G/JJJ)	.
!	!LO:LB:g=original	!
*xywh-6:681,2651,3958,1063	*xywh-6:681,2651,3958,1063	*
=31	=31	=31
!	!LO:TX:a:i:t=seque	!
4r	32G/LLL	.
.	32d/	.
.	32b/	.
.	32aa#X/JJJ	.
.	32aa#/LLL	.
.	32b/	.
.	32d/	.
.	32G/JJJ	.
!	!LO:TX:a:t=pizz.	!
2G/	32G/LLL	sf
.	32d/	.
.	32b/	.
.	32bb/JJJ	.
.	32bb/LLL	.
.	32b/	.
.	32d/	.
.	32G/JJJ	.
.	32G/LLL	.
.	32d/	.
.	32b/	.
.	32aan/JJJ	.
.	32aa/LLL	.
.	32b/	.
.	32d/	.
.	32G/JJJ	.
4ryy	32G/LLL	.
.	32d/	.
.	32b/	.
.	32gg/JJJ	.
.	32gg/LLL	.
.	32b/	.
.	32d/	.
.	32G/JJJ	.
!	!LO:LB:g=original	!
*xywh-6:632,3724,3988,935	*xywh-6:632,3724,3988,935	*
=32	=32	=32
4r	32G/LLL	.
.	32e/	.
.	32cc#X/	.
.	32ee/JJJ	.
.	32ee/LLL	.
.	32cc#/	.
.	32e/	.
.	32G/JJJ	.
!	!LO:TX:a:t=pizz.	!
2G/	32G/LLL	sf
.	32e/	.
.	32cc#/	.
.	32aa/JJJ	.
.	32aa/LLL	.
.	32cc#/	.
.	32e/	.
.	32G/JJJ	.
.	32G/LLL	.
.	32e/	.
.	32cc#/	.
.	32bb/JJJ	.
.	32bb/LLL	.
.	32cc#/	.
.	32e/	.
.	32G/JJJ	.
4ryy	32G/LLL	.
.	32e/	.
.	32cc#/	.
.	32aa/JJJ	.
.	32aa/LLL	.
.	32cc#/	.
.	32e/	.
.	32G/JJJ	.
!	!LO:PB:g=original	!
*xywh-6:612,4660,4007,955	*xywh-6:612,4660,4007,955	*
=33	=33	=33
4r	32G/LLL	.
.	32d/	.
.	32ccn/	.
.	32gg/JJJ	.
.	32gg/LLL	.
.	32cc/	.
.	32d/	.
.	32G/JJJ	.
!	!LO:TX:a:t=pizz.	!
2G/	32G/LLL	sf
.	32d/	.
.	32cc/	.
.	32ee/JJJ	.
.	32ff#/LLL	.
.	32cc/	.
.	32d/	.
.	32G/JJJ	.
.	32G/LLL	.
.	32d/	.
.	32b/	.
.	32gg/JJJ	.
.	32gg/LLL	.
.	32b/	.
.	32d/	.
.	32G/JJJ	.
4ryy	32G/LLL	.
.	32d/	.
.	32b/	.
.	32gg#X/JJJ	.
.	32gg#/LLL	.
.	32b/	.
.	32d/	.
.	32G/JJJ	.
!	!LO:LB:g=original	!
*xywh-7:341,656,3994,683	*xywh-7:341,656,3994,683	*
=34	=34	=34
1r	(32G^/LLL	fff
.	32e/	.
.	32cc#X/	.
.	32bb/JJJ)	.
.	(32bb^/LLL	.
.	32cc#/	.
.	32e/	.
.	32G/JJJ	.
.	32G^/LLL	.
.	32e/	.
.	32cc#/	.
.	32aa/JJJ)	.
.	(32aa^/LLL	.
.	32cc#/	.
.	32e/	.
.	32G/JJJ	.
.	32G^/LLL	.
.	32e/	.
.	32cc#/	.
.	32ee/JJJ)	.
.	(32ee^/LLL	.
.	32cc#/	.
.	32e/	.
.	32G/JJJ	.
.	32G^/LLL	.
.	32e/	.
.	32cc#/	.
.	32aa/JJJ)	.
.	(32aa^/LLL	.
.	32cc#/	.
.	32e/	.
.	32G/JJJ	.
!	!LO:LB:g=original	!
*xywh-7:284,1210,4125,585	*xywh-7:284,1210,4125,585	*
=35	=35	=35
1r	32G^/LLL	.
.	32e/	.
.	32cc#X/	.
.	32bb/JJJ)	.
.	(32bb^/LLL	.
.	32cc#/	.
.	32e/	.
.	32G/JJJ	.
.	32G^/LLL	.
.	32e/	.
.	32cc#/	.
.	32aa/JJJ)	.
.	(32aa^/LLL	.
.	32cc#/	.
.	32e/	.
.	32G/JJJ	.
.	32G/LLL	.
.	32e/	.
.	32cc#/	.
.	32ee/JJJ)	.
.	(32ee/LLL	.
.	32cc#/	.
.	32e/	.
.	32G/JJJ	.
.	32G/LLL	.
.	32e-X/	.
.	32cc#/	.
.	32aa/JJJ)	.
.	(32aa/LLL	.
.	32cc#/	.
.	32e-/	.
.	32G/JJJ	.
!	!LO:LB:g=original	!
*xywh-7:325,1722,4051,520	*xywh-7:325,1722,4051,520	*
=36	=36	=36
1r	32G/LLL	.
.	32d/	.
.	32cc/	.
.	32gg/JJJ)	.
!	!LO:TX:a:i:t=seque	!
.	32gg/LLL	.
.	32cc/	.
.	32d/	.
.	32G/JJJ	.
.	32G/LLL	.
.	32d/	.
.	32cc/	.
.	32ff#/JJJ	.
.	32ff#/LLL	.
.	32cc/	.
.	32d/	.
.	32G/JJJ	.
.	32G/LLL	.
.	32d/	.
.	32cc/	.
.	32bb/JJJ	.
.	32bb/LLL	.
.	32cc/	.
.	32d/	.
.	32G/JJJ	.
.	32G/LLL	.
.	32d/	.
.	32cc/	.
.	32aa/JJJ	.
.	32aa/LLL	.
.	32cc/	.
.	32d/	.
.	32G/JJJ	.
!	!LO:LB:g=original	!
*xywh-7:358,2219,3962,488	*xywh-7:358,2219,3962,488	*
=37	=37	=37
1r	32G/LLL	.
.	32d/	.
.	32b/	.
.	32aa/JJJ	.
.	32aa/LLL	.
.	32b/	.
.	32d/	.
.	32G/JJJ	.
.	32G/LLL	.
.	32d/	.
.	32b/	.
.	32gg/JJJ	.
.	32ff#/LLL	.
.	32b/	.
.	32d/	.
.	32G/JJJ	.
.	32G/LLL	.
.	32d/	.
.	32b/	.
.	32gg/JJJ	.
.	32gg/LLL	.
.	32b/	.
.	32d/	.
.	32G/JJJ	.
.	32G/LLL	.
.	32d/	.
.	32b/	.
.	32gg#X/JJJ	.
.	32gg#/LLL	.
.	32b/	.
.	32d/	.
.	32G/JJJ	.
!	!LO:LB:g=original	!
*xywh-7:349,2691,4051,553	*xywh-7:349,2691,4051,553	*
=38	=38	=38
1r	(32G|/LLL	p
.	32e|/	.
.	32cc#X|/	.
.	32bb|/JJJ)	.
.	(32bb|/LLL	.
.	32cc#|/	.
.	32e|/	.
.	32G|/JJJ)	.
.	(32G|/LLL	.
.	32e|/	.
.	32cc#|/	.
.	32aa|/JJJ)	.
.	(32aa|/LLL	.
.	32cc#|/	.
.	32e|/	.
.	32G|/JJJ)	.
.	(32G|/LLL	.
.	32e|/	.
.	32cc#|/	.
.	32ee|/JJJ)	.
.	(32ee|/LLL	.
.	32cc#|/	.
.	32e|/	.
.	32G|/JJJ)	.
.	(32G|/LLL	.
.	32d#X|/	.
.	32cc#|/	.
.	32aa|/JJJ)	.
.	(32aa|/LLL	.
.	32cc#|/	.
.	32d#|/	.
.	32G|/JJJ)	.
!	!LO:LB:g=original	!
*xywh-7:333,3138,4060,537	*xywh-7:333,3138,4060,537	*
=39	=39	=39
!	!LO:TX:a:i:t=seque	!
1r	32G/LLL	.
.	32e/	.
.	32cc#X/	.
.	32bb/JJJ	.
.	32bb/LLL	.
.	32cc#/	.
.	32e/	.
.	32G/JJJ	.
.	32G/LLL	.
.	32e/	.
.	32cc#/	.
.	32aa/JJJ	.
.	32aa/LLL	.
.	32cc#/	.
.	32e/	.
.	32G/JJJ	.
.	32G/LLL	.
.	32e/	.
.	32cc#/	.
.	32ee/JJJ	.
.	32ee/LLL	.
.	32cc#/	.
.	32e/	.
.	32G/JJJ	.
.	32G/LLL	.
.	32e-X/	.
.	32cc#/	.
.	32aa/JJJ	.
.	32aa/LLL	.
.	32cc#/	.
.	32e-/	.
.	32G/JJJ	.
!	!LO:LB:g=original	!
*xywh-7:382,3618,3978,520	*xywh-7:382,3618,3978,520	*
=40	=40	=40
1r	32G/LLL	.
.	32d/	.
.	32ccn/	.
.	32gg/JJJ	.
.	32gg/LLL	.
.	32cc/	.
.	32d/	.
.	32G/JJJ	.
.	32G/LLL	.
.	32d/	.
.	32cc/	.
.	32ff#/JJJ	.
.	32gg/LLL	.
.	32cc/	.
.	32d/	.
.	32G/JJJ	.
.	32G/LLL	.
.	32d/	.
.	32cc/	.
.	32eee/JJJ	.
.	32eee/LLL	.
.	32cc/	.
.	32d/	.
.	32G/JJJ	.
.	32G/LLL	.
.	32d/	.
.	32cc/	.
.	32eee-X/JJJ	.
.	32eee-/LLL	.
.	32cc/	.
.	32d/	.
.	32G/JJJ	.
!	!LO:LB:g=original	!
*xywh-7:406,4066,3978,561	*xywh-7:406,4066,3978,561	*
=41	=41	=41
!	!	!LO:DY:a
1r	32G/LLL	>]
.	32d/	.
.	32cc/	.
.	32ddd/JJJ	.
.	32ddd/LLL	.
.	32cc/	.
.	32d/	.
.	32G/JJJ	.
.	32G/LLL	.
.	32d/	.
.	32cc/	.
.	32ccc#X/JJJ	.
.	32ccc#/LLL	.
.	32ccn/	.
.	32d/	.
.	32G/JJJ	.
.	32G/LLL	.
.	32d/	.
.	32cc/	.
.	32cccn/JJJ	.
.	32ccc/LLL	.
.	32cc/	.
.	32d/	.
.	32G/JJJ	.
.	32G/LLL	.
.	32d/	.
.	32cc/	.
.	32aa/JJJ	.
.	32aa/LLL	.
.	32cc/	.
.	32d/	.
.	32G/JJJ	.
!	!LO:PB:g=original	!
*xywh-7:349,4586,4084,903	*xywh-7:349,4586,4084,903	*
=42	=42	=42
4r	(32G~/LLL	ppp
.	32d~/	.
.	32b~/	.
.	32gg~/JJJ)	.
.	(32gg~/LLL	.
.	32b~/	.
.	32d~/	.
.	32G~/JJJ)	.
!	!LO:TX:a:t=pizz.	!
2G/	(32G~/LLL	sf
.	32d~/	.
.	32b~/	.
.	32gg~/JJJ)	.
.	(32gg~/LLL	.
.	32b~/	.
.	32d~/	.
.	32G~/JJJ)	.
.	(32G~/LLL	.
.	32d~/	.
.	32b~/	.
.	32gg~/JJJ)	.
.	(32gg~/LLL	.
.	32b~/	.
.	32d~/	.
.	32G~/JJJ)	.
4ryy	(32G~/LLL	.
.	32d~/	.
.	32b~/	.
.	32aa~/JJJ)	.
.	(32aa~/LLL	.
.	32b~/	.
.	32d~/	.
.	32G~/JJJ)	.
!	!LO:LB:g=original	!
*xywh-8:610,716,3989,1055	*xywh-8:610,716,3989,1055	*
=43	=43	=43
!	!LO:TX:a:i:t=seque	!
4r	32G/LLL	.
.	32d/	.
.	32b/	.
.	32aa#X/JJJ	.
.	32aa#/LLL	.
.	32b/	.
.	32d/	.
.	32G/JJJ	.
!	!LO:TX:a:t=pizz.	!
2G/	32G/LLL	sf
.	32d/	.
.	32b/	.
.	32bb/JJJ	.
.	32bb/LLL	.
.	32b/	.
.	32d/	.
.	32G/JJJ	.
.	32G/LLL	.
.	32d/	.
.	32b/	.
.	32aa#/JJJ	.
.	32aa#/LLL	.
.	32b/	.
.	32d/	.
.	32G/JJJ	.
4ryy	32G/LLL	.
.	32d/	.
.	32b/	.
.	32gg/JJJ	.
.	32gg/LLL	.
.	32b/	.
.	32d/	.
.	32G/JJJ	.
!	!LO:LB:g=original	!
*xywh-8:619,1752,3989,958	*xywh-8:619,1752,3989,958	*
=44	=44	=44
4r	32G/LLL	.
.	32e/	.
.	32cc#X/	.
.	32ee/JJJ	.
.	32ee/LLL	.
.	32cc#/	.
.	32e/	.
.	32G/JJJ	.
!	!LO:TX:a:t=pizz.	!
2G/	32G/LLL	sf
.	32e-X/	.
.	32ccn/	.
.	32aa/JJJ	.
.	32aa/LLL	.
.	32cc/	.
.	32e-/	.
.	32G/JJJ	.
.	32G/LLL	.
.	32d/	.
.	32cc/	.
.	32bb/JJJ	.
.	32bb/LLL	.
.	32cc/	.
.	32d/	.
.	32G/JJJ	.
4ryy	32G/LLL	.
.	32d/	.
.	32cc/	.
.	32aa/JJJ	.
.	32aa/LLL	.
.	32cc/	.
.	32d/	.
.	32G/JJJ	.
!	!LO:LB:g=original	!
*xywh-8:678,2700,3920,1026	*xywh-8:678,2700,3920,1026	*
=45	=45	=45
4r	32G/LLL	.
.	32d/	.
.	32b/	.
.	32gg/JJJ	.
.	32gg/LLL	.
.	32b/	.
.	32d/	.
.	32G/JJJ	.
!	!LO:TX:a:t=pizz.	!
2G/	32G/LLL	sf
.	32d/	.
.	32b/	.
.	32ff#/JJJ	.
.	32gg/LLL	.
.	32b/	.
.	32d/	.
.	32G/JJJ	.
.	32G/LLL	.
.	32d/	.
.	32cc/	.
.	32aa/JJJ	.
.	32aa/LLL	.
.	32cc/	.
.	32d/	.
.	32G/JJJ	.
4ryy	32G/LLL	.
.	32d/	.
.	32cc/	.
.	32ddd/	.
.	32ddd/	.
.	32cc/	.
.	32d/	.
.	32G/JJJ	.
!	!LO:LB:g=original	!
*xywh-8:600,3639,4018,958	*xywh-8:600,3639,4018,958	*
=46	=46	=46
4r	(32G/LLL	.
.	32d/	.
.	32b/	.
.	32gg/JJJ)	.
.	(32gg/LLL	.
.	32b/	.
.	32d/	.
.	32G/JJJ)	.
!	!LO:TX:a:t=pizz.	!
2G/	(32G/LLL	sf
.	32d/	.
.	32b/	.
.	32ff#/JJJ)	.
.	(32gg/LLL	.
.	32b/	.
.	32d/	.
.	32G/JJJ)	.
.	(32G/LLL	.
.	32d/	.
.	32cc/	.
.	32aa/JJJ)	.
.	(32aa/LLL	.
.	32cc/	.
.	32d/	.
.	32G/JJJ)	.
4ryy	(32G/LLL	.
.	32d/	.
.	32b/	.
.	32aa/JJJ)	.
.	(32aa/LLL	.
.	32b/	.
.	32d/	.
.	32G/JJJ)	.
!	!LO:PB:g=original	!
*xywh-8:571,4539,4135,1271	*xywh-8:571,4539,4135,1271	*
=47	=47	=47
!	!LO:TX:a:i:t=seque	!
4r	32G/LLL	.
.	32d/	.
.	32b/	.
.	32aa#X/JJJ	.
.	32aa#/LLL	.
.	32b/	.
.	32d/	.
.	32G/JJJ	.
!	!LO:TX:a:t=pizz.	!
2G/	32G/LLL	sf
.	32d/	.
.	32b/	.
.	32bb/JJJ	.
.	32bb/LLL	.
.	32b/	.
.	32d/	.
.	32G/JJJ	.
.	32G/LLL	.
.	32d/	.
.	32b/	.
.	32aan/JJJ	.
.	32aa/LLL	.
.	32b/	.
.	32d/	.
.	32G/JJJ	.
4ryy	32G/LLL	.
.	32d/	.
.	32b/	.
.	32gg/JJJ	.
.	32gg/LLL	.
.	32b/	.
.	32d/	.
.	32G/JJJ	.
!	!LO:LB:g=original	!
*xywh-9:367,766,4106,950	*xywh-9:367,766,4106,950	*
=48	=48	=48
4r	32G/LLL	.
.	32e/	.
.	32cc#X/	.
.	32ee/JJJ	.
.	32ee/LLL	.
.	32cc#/	.
.	32e/	.
.	32G/JJJ	.
!	!LO:TX:a:t=pizz.	!
2G/	32G/LLL	sf
.	32e-X/	.
.	32ccn/	.
.	32aa/JJJ	.
.	32aa/LLL	.
.	32cc/	.
.	32e-/	.
.	32G/JJJ	.
.	32G/LLL	.
.	32e-/	.
.	32cc/	.
.	32bb/JJJ	.
.	32bb/LLL	.
.	32cc/	.
.	32e-/	.
.	32G/JJJ	.
4ryy	32G/LLL	.
.	32e-/	.
.	32cc/	.
.	32aa/JJJ	.
.	32aa/LLL	.
.	32cc/	.
.	32e-/	.
.	32G/JJJ	.
!	!LO:LB:g=original	!
*xywh-9:455,1736,4008,911	*xywh-9:455,1736,4008,911	*
=49	=49	=49
4r	32G/LLL	.
.	32d/	.
.	32cc/	.
.	32gg/JJJ	.
.	32gg/LLL	.
.	32cc/	.
.	32d/	.
.	32G/JJJ	.
!	!LO:TX:a:t=pizz.	!
2G/	32G/LLL	sf
.	32d/	.
.	32cc/	.
.	32ff#/JJJ	.
.	32ff#/LLL	.
.	32cc/	.
.	32d/	.
.	32G/JJJ	.
.	32G/LLL	.
.	32d/	.
.	32cc/	.
.	32ee/JJJ	.
.	32ee/LLL	.
.	32cc/	.
.	32d/	.
.	32G/JJJ	.
4ryy	32G/LLL	.
.	32d/	.
.	32cc/	.
.	32ff#/JJJ	.
.	32ff#/LLL	.
.	32cc/	.
.	32d/	.
.	32G/JJJ	.
!	!LO:LB:g=original	!
*xywh-9:406,2638,3949,989	*xywh-9:406,2638,3949,989	*
=50	=50	=50
4r	32G/LLL	.
.	32d/	.
.	32b/	.
.	32gg/JJJ	.
.	32gg/LLL	.
.	32b/	.
.	32d/	.
.	32G/JJJ	.
!	!LO:TX:a:t=pizz.	!
4G/	32G/LLL	sf
.	32d/	.
.	32b/	.
.	32gg#X/JJJ	.
.	32gg#/LLL	.
.	32b/	.
.	32d/	.
.	32G/JJJ	.
4r	32G/LLL	.
.	32d/	.
.	32cc/	.
.	32bb/JJJ	.
.	32bb/LLL	.
.	32cc/	.
.	32d/	.
.	32G/JJJ	.
!	!LO:TX:a:t=pizz.	!
4G/	32G/LLL	sf
.	32d/	.
.	32cc/	.
.	32aa/JJJ	.
.	32aa/LLL	.
.	32cc/	.
.	32d/	.
.	32G/JJJ	.
!	!LO:LB:g=original	!
*xywh-9:337,3588,4155,979	*xywh-9:337,3588,4155,979	*
=51	=51	=51
4r	32G/LLL	.
.	32d/	.
.	32b/	.
.	32aa/JJJ	.
.	32aa/LLL	.
.	32b/	.
.	32d/	.
.	32G/JJJ	.
!	!LO:TX:a:t=pizz.	!
4G/	32G/LLL	sf
.	32d/	.
.	32b/	.
.	32gg/JJJ	.
.	32gg/LLL	.
.	32b/	.
.	32d/	.
.	32G/JJJ	.
4r	32G/LLL	.
.	32d/	.
.	32cc/	.
.	32ee/JJJ	.
.	32ee/LLL	.
.	32cc/	.
.	32d/	.
.	32G/JJJ	.
!	!LO:TX:a:t=pizz.	!
4G/	32G/LLL	sf
.	32d/	.
.	32cc/	.
.	32ff#/JJJ	.
.	32ff#/LLL	.
.	32cc/	.
.	32d/	.
.	32G/JJJ	.
!	!LO:LB:g=original	!
*xywh-9:426,4519,4066,1195	*xywh-9:426,4519,4066,1195	*
=52	=52	=52
4r	32G/LLL	.
.	32d/	.
.	32b/	.
.	32gg/JJJ	.
.	32gg/LLL	.
.	32b/	.
.	32d/	.
.	32G/JJJ	.
!	!LO:TX:a:t=pizz.	!
4G/	32G/LLL	sf
.	32d/	.
.	32b/	.
.	32gg#X/JJJ	.
.	32gg#/LLL	.
.	32b/	.
.	32d/	.
.	32G/JJJ	.
4r	32G/LLL	.
.	32d/	.
.	32cc/	.
.	32bb/JJJ	.
.	32bb/LLL	.
.	32cc/	.
.	32d/	.
.	32G/JJJ	.
!	!LO:TX:a:t=pizz.	!
4G/	32G/LLL	sf
.	32d/	.
.	32cc/	.
.	32aa/JJJ	.
.	32aa/LLL	.
.	32cc/	.
.	32d/	.
.	32G/JJJ	.
!	!LO:LB:g=original	!
*xywh-10:634,806,4019,990	*xywh-10:634,806,4019,990	*
=53	=53	=53
4r	32G/LLL	.
.	32d/	.
.	32b/	.
.	32aa/JJJ	.
.	32aa/LLL	.
.	32b/	.
.	32d/	.
.	32G/JJJ	.
!	!LO:TX:a:t=pizz.	!
4G/	32G/LLL	sf
.	32d/	.
.	32b/	.
.	32gg/JJJ	.
.	32ff#/LLL	.
.	32b/	.
.	32d/	.
.	32G/JJJ	.
4r	32G/LLL	.
.	32d/	.
.	32cc/	.
.	32ee/JJJ	.
.	32ee/LLL	.
.	32cc/	.
.	32d/	.
.	32G/JJJ	.
!	!LO:TX:a:t=pizz.	!
4G/	32G/LLL	sf
.	32d/	.
.	32cc/	.
.	32ff#/JJJ	.
.	32ff#/LLL	.
.	32cc/	.
.	32d/	.
.	32G/JJJ	.
!	!LO:LB:g=original	!
*xywh-10:605,1747,4098,1009	*xywh-10:605,1747,4098,1009	*
=54	=54	=54
4r	32G/LLL	.
.	32d/	.
.	32b/	.
.	32aa/JJJ	.
.	32aa/LLL	.
.	32b/	.
.	32d/	.
.	32G/JJJ	.
!	!LO:TX:a:t=pizz.	!
4G/	32G/LLL	sf
.	32d/	.
.	32b/	.
.	32gg/JJJ	.
.	32ff#/LLL	.
.	32b/	.
.	32d/	.
.	32G/JJJ	.
4r	32G/LLL	.
.	32d/	.
.	32cc/	.
.	32ee/JJJ	.
.	32ee/LLL	.
.	32cc/	.
.	32d/	.
.	32G/JJJ	.
!	!LO:TX:a:t=pizz.	!
4G/	32G/LLL	sf
.	32d/	.
.	32cc/	.
.	32ff#/JJJ	.
.	32ff#/LLL	.
.	32cc/	.
.	32d/	.
.	32G/JJJ	.
!	!LO:LB:g=original	!
*xywh-10:644,2737,4127,980	*xywh-10:644,2737,4127,980	*
=55	=55	=55
4r	32G/LLL	.
.	32d/	.
.	32b/	.
.	32aa/JJJ	.
.	32aa/LLL	.
.	32b/	.
.	32d/	.
.	32G/JJJ	.
!	!LO:TX:a:t=pizz.	!
4G/	32G/LLL	sf
.	32d/	.
.	32b/	.
.	32gg/JJJ	.
.	32ff#/LLL	.
.	32b/	.
.	32d/	.
.	32G/JJJ	.
4r	32G/LLL	.
.	32d/	.
.	32cc/	.
.	32ee/JJJ	.
.	32ee/LLL	.
.	32cc/	.
.	32d/	.
.	32G/JJJ	.
!	!LO:TX:a:t=pizz.	!
4G/	32G/LLL	sf
.	32d/	.
.	32cc/	.
.	32ff#/JJJ	.
.	32ff#/LLL	.
.	32cc/	.
.	32d/	.
.	32G/JJJ	.
!	!LO:LB:g=original	!
*xywh-10:664,3698,4049,951	*xywh-10:664,3698,4049,951	*
=56	=56	=56
8r	32G/LLL	.
.	32d/	.
.	32b/	.
.	32gg/JJJ	.
8G/	32gg/LLL	.
.	32b/	.
.	32d/	.
.	32G/JJJ	.
8r	32G/LLL	.
.	32d/	.
.	32b/	.
.	32gg/JJJ	.
8G/	32gg/LLL	.
.	32b/	.
.	32d/	.
.	32G/JJJ	.
8r	32G/LLL	.
.	32d/	.
.	32b/	.
.	32gg/JJJ	.
8G/	32gg/LLL	.
.	32b/	.
.	32d/	.
.	32G/JJJ	.
8r	32G/LLL	.
.	32e-X/	.
.	32b-X/	.
.	32gg/JJJ	.
8G/	32gg/LLL	.
.	32b-/	.
.	32e-/	.
.	32G/JJJ	.
!	!LO:PB:g=original	!
*xywh-10:615,4590,4127,1186	*xywh-10:615,4590,4127,1186	*
=57	=57	=57
8r	32G/LLL	.
.	32d/	.
.	32bn/	.
.	32gg/JJJ	.
8G/	32gg/LLL	.
.	32b/	.
.	32d/	.
.	32G/JJJ	.
8r	32G/LLL	.
.	32e-X/	.
.	32b-X/	.
.	32gg/JJJ	.
8G/	32gg/LLL	.
.	32b-/	.
.	32e-/	.
.	32G/JJJ	.
8r	32G/LLL	.
.	32d/	.
.	32bn/	.
.	32gg/JJJ	.
8G/	32gg/LLL	.
.	32b/	.
.	32d/	.
.	32G/JJJ	.
8r	32G/LLL	.
.	32e-/	.
.	32b-X/	.
.	32gg/JJJ	.
8G/	32gg/LLL	.
.	32b-/	.
.	32e-/	.
.	32G/JJJ	.
!	!LO:LB:g=original	!
*xywh-11:282,762,4092,935	*xywh-11:282,762,4092,935	*
=58	=58	=58
!	!	!LO:DY:a
8r	32G/LLL	>
.	32d/	.
.	32bn/	.
.	32gg/JJJ	.
8G/	32gg/LLL	.
.	32b/	.
.	32d/	.
.	32G/JJJ	.
8r	32G/LLL	.
.	32d/	.
.	32b/	.
.	32gg/JJJ	.
8G/	32gg/LLL	.
.	32b/	.
.	32d/	.
.	32G/JJJ	.
8r	32G/LLL	.
.	32d/	.
.	32b/	.
.	32gg/JJJ	.
8G/	32gg/LLL	.
.	32b/	.
.	32d/	.
.	32G/JJJ	.
8r	32G/LLL	.
.	32e-X/	.
.	32b-X/	.
.	32gg/JJJ	.
8G/	32gg/LLL	.
.	32b-/	.
.	32e-/	.
.	32G/JJJ	.
!	!LO:LB:g=original	!
*xywh-11:311,1707,4102,896	*xywh-11:311,1707,4102,896	*
=59	=59	=59
8r	32G/LLL	.
.	32d/	.
.	32bn/	.
.	32gg/JJJ	.
8G/	32gg/LLL	.
.	32b/	.
.	32d/	.
.	32G/JJJ	.
8r	32G/LLL	.
.	32e-X/	.
.	32b-X/	.
.	32gg/JJJ	.
8G/	32gg/LLL	.
.	32b-/	.
.	32e-/	.
.	32G/JJJ	.
8r	32G/LLL	.
.	32d/	.
.	32bn/	.
.	32gg/JJJ	.
8G/	32gg/LLL	.
.	32b/	.
.	32d/	.
.	32G/JJJ	.
8r	32G/LLL	.
.	32e-/	.
.	32b-X/	.
.	32gg/JJJ	.
8G/	32gg/LLL	]]
.	32b-/	.
.	32e-/	.
.	32G/JJJ	.
!	!LO:LB:g=original	!
*xywh-11:330,2604,4082,935	*xywh-11:330,2604,4082,935	*
=60	=60	=60
!	!LO:TX:a:i:t=morendo.	!
8r	32G/LLL	.
.	32d/	.
.	32bn/	.
.	32gg/JJJ	.
8G/	32gg/LLL	.
.	32b/	.
.	32d/	.
.	32G/JJJ	.
8r	32G/LLL	.
.	32d/	.
.	32b/	.
.	32gg/JJJ	.
8G/	32gg/LLL	.
.	32b/	.
.	32d/	.
.	32G/JJJ	.
8r	32G/LLL	.
.	32d/	.
.	32b/	.
.	32gg/JJJ	.
8G/	32gg/LLL	.
.	32b/	.
.	32d/	.
.	32G/JJJ	.
8r	32G/LLL	.
.	32d/	.
.	32b/	.
.	32gg/JJJ	.
8G/	32gg/LLL	.
.	32b/	.
.	32d/	.
.	32G/JJJ	.
!	!LO:LB:g=original	!
*xywh-11:359,3558,4043,857	*xywh-11:359,3558,4043,857	*
=61	=61	=61
8r	32G/LLL	.
.	32d/	.
.	32b/	.
.	32gg/JJJ	.
8G/	32gg/LLL	.
.	32b/	.
.	32d/	.
.	32G/JJJ	.
8r	32G/LLL	.
.	32d/	.
.	32b/	.
.	32gg/JJJ	.
8G/	32gg/LLL	.
.	32b/	.
.	32d/	.
.	32G/JJJ	.
8r	32G/LLL	.
.	32d/	.
.	32b/	.
.	32gg/JJJ	.
8G/	32gg/LLL	.
.	32b/	.
.	32d/	.
.	32G/JJJ	.
8r	32G/LLL	.
.	32d/	.
.	32b/	.
.	32gg/JJJ	.
8G/	32gg/LLL	.
.	32b/	.
.	32d/	.
.	32G/JJJ	.
*xywh-11:282,4445,4102,623	*xywh-11:282,4445,4102,623	*
=62	=62	=62
.	(8qqG/L	ppp
.	8qqd/	.
.	8qqb/J	.
16%13r	4bb\)	.
.	(32aa\LLL	.
.	32bb\	.
.	32aa\	.
.	32gg\	.
.	32ff#\	.
.	32ee\	.
.	32dd\	.
.	32cc\	.
.	32b\	.
.	32a\	.
.	32g\	.
.	32f#\	.
.	32e\	.
.	32d\	.
.	32c\	.
.	32B\	.
.	32A\	.
.	32G\JJJ)	.
=63	=63	=63
.	(8qqG/L	.
.	8qqd/	.
.	8qqb/J	.
16%13r	4bb^\)	.
.	(32aa\LLL	.
.	32bb\	.
.	32aa\	.
.	32gg\	.
.	32ff#\	.
.	32ee\	.
.	32dd\	.
.	32cc\	.
.	32b\	.
.	32a\	.
.	32g\	.
.	32f#\	.
.	32e\	.
.	32d\	.
.	32c\	.
.	32B\	.
.	32A\	.
.	32G\JJJ)	.
=64	=64	=64
.	(8qqG/L	.
.	8qqd/	.
.	8qqb/J	.
16%13r	4bb^\)	.
.	(32aa\LLL	.
.	32bb\	.
.	32aa\	.
.	32gg\	.
.	32ff#\	.
.	32ee\	.
.	32dd\	.
.	32cc\	.
.	32b\	.
.	32a\	.
.	32g\	.
.	32f#\	.
.	32e\	.
.	32d\	.
.	32c\	.
.	32B\	.
.	32A\	.
.	32G\JJJ)	.
!	!LO:LB:g=original	!
*xywh-11:243,5001,4199,799	*xywh-11:243,5001,4199,799	*
=65	=65	=65
.	(8qqG/L	.
.	8qqd/	.
.	8qqb/J	.
16%45r	[8bb\L)	.
.	16bb\Jk_	.
.	(16bb/LL]	.
.	16aa/	.
.	16bb/	.
.	16aa/	.
.	16gg/	.
.	16ff#/	.
.	16ee/	.
.	16dd/	.
.	16cc/	.
.	16b/	.
.	16a/	.
.	16g/	.
.	16f#/	.
.	16e/	.
.	16d/	.
.	16c/	.
.	16B/	.
.	16A/JJ	.
.	16G/LL	.
.	16A/	.
.	16B/	.
.	16c/	.
.	16d/	.
.	16e/	.
.	16f#/	.
.	16g/	.
.	16a/	.
.	16b/	.
.	16cc/	.
.	16dd/	.
.	16ee/	.
.	16ff#/	.
.	16gg/	.
.	16aa/JJ	.
.	8bb\)	.
.	8r	.
.	16r;	.
.	8r	.
.	16r	.
=66	=66	=66
1r	16bb|\LL	ff
.	16aa\	.
.	16gg\	.
.	16ff#\JJ	.
.	16ee|\LL	.
.	16dd\	.
.	16cc\	.
.	16b\JJ	.
.	16a|/LL	.
.	16g/	.
.	16f#/	.
.	16e/JJ	.
.	16d|/LL	.
.	16c/	.
.	16B/	.
.	16A/JJ	.
=67	=67	=67
1r	8G/	.
!	!LO:TX:a:t=main droite.	!
.	8r	.
.	8G/ 8d 8b 8gg	sf
.	8r	.
.	2r	.
==	==	==
*-	*-	*-
!!!RDF**kern: | = vertical stroke
!!!system-decoration: {(s1,s2)}
!!!ENC: Arkadiusz Malec
!!!END: 2022-02-22
!!!ENC: Julita Ruszuk
!!!END: 2022-02-28
!!!ENC-iiif: Konrad Tyszka
!!!END-iiif: 2022-08-24
!!!YEC: Copyright 2022 Narodowy Instytut Fryderyka Chopina (https://polishscores.org)
!!!YEM: License CC-BY-4.0 (https://creativecommons.org/licenses/by/4.0)
